X:1
T:Fear Not This Night
L:1/8
M:3/4
K:D
V:1 treble nm="Flute" snm="Fl."
V:1
 B2 d2 f2 | B4 dc | c2 A3 c | B6 | B2 d2 f2 | b4 ba | a6 | ab ^g4 | d2 d2 dc | dc B2 cd | %10
 cB A2 Ac | B6 | d2 d2 dc | de B2 cd | cd e2 dc | B6 | f2 f2 fe | fe d2 ef | ed c2 de | dc B4 | %20
 f2 f2 fe | fb b2 fb | a2 B2 a2 | ab ^g4 | a2 b2 c'2 | d'c' b4- | b6- | b6 | a2 b2 c'2 | d'e' b4- | %30
 b6- | b6 | B2 d2 f2 | B4 dc | c2 A3 c | B6 | B2 d2 f2 | b4 d'c' | c'4 ac' | b4- bf | b4 b2 | %41
 a2 f2 g2 | a6- | a4 fa | b4 bc' | d'2 f3 g | a6- | a6 | g4 gg | f2 e3 d | e6- | e6 | g4 ab | %53
 a2 f3 d | e6- | e6 | d2 d2 dc | dc B2 cd | cB A2 Bc | B6 | d2 d2 dc | de B2 cd | cd e2 dc | B6 | %64
 f2 f2 fe | fe d2 ef | ed c2 de | dc B4 | f2 f2 fe | fb b2 fb | a2 B2 a2 | ab ^g4 | a2 b2 c'2 | %73
 d'c' b4- | b6- | b6 | a2 b2 c'2 | d'e' b4- | b6- | b6 | B2 d2 f2 | B4 dc | c2 A3 c | B6 | %84
 B2 d2 f2 | b4 d'c' | c'4 ac' | b4- bf | z2 b^a b2 | b4 b^a | b2 ^g4- | g6 | z2 =c'b c'2 | %93
 =c'2 a4 | =c'2 b2 d'2 | =c'b a4 |[K:A] f2 a2 c'2 | f4 ag | g2 e3 g | f6 | f2 a2 c'2 | f'4 a'g' | %102
 g'4 e'g' | f'6 | f2 a2 c'2 | f4 ag | g2 e3 g | f6 | f2 a2 c'2 | f'4 a'g' | g'4 e'g' | f'4- f'c' | %112
 f'4 f'2 | e'2 c'2 d'2 | e'6- | e'4 c'e' | f'4 f'g' | a'2 c'3 d' | e'6- | e'6 | d'4 d'd' | %121
 c'2 b3 a | b6- | b6 | d'4 e'f' | e'2 c'3 a | b6- | b6 |] %128

